static/images/animations/apple.svg

<svg width="16" height="16" viewBox="0 0 16 16" fill="none" xmlns="http://www.w3.org/2000/svg">
<g clip-path="url(#clip0_3809_68117)">
<g clip-path="url(#clip1_3809_68117)">
<path d="M10.7712 0.799805C10.8047 0.799805 10.8382 0.799805 10.8736 0.799805C10.9558 1.81532 10.5682 2.57412 10.0971 3.12361C9.63488 3.66931 9.00192 4.19857 7.97818 4.11826C7.90989 3.11729 8.29814 2.41477 8.76859 1.86654C9.20489 1.35562 10.0048 0.900977 10.7712 0.799805Z" fill="#19191C"/>
<path d="M13.8702 11.37C13.8702 11.3801 13.8702 11.389 13.8702 11.3985C13.5825 12.2698 13.1721 13.0166 12.6713 13.7096C12.2141 14.3388 11.6539 15.1855 10.6536 15.1855C9.78917 15.1855 9.21502 14.6297 8.32913 14.6145C7.39202 14.5993 6.87667 15.0793 6.01986 15.2C5.92185 15.2 5.82384 15.2 5.72773 15.2C5.09856 15.109 4.5908 14.6107 4.22089 14.1618C3.13013 12.8351 2.28723 11.1215 2.13042 8.92861C2.13042 8.71362 2.13042 8.49926 2.13042 8.28427C2.19681 6.71483 2.9594 5.43879 3.97302 4.82037C4.50797 4.49156 5.24337 4.21144 6.06223 4.33664C6.41317 4.39102 6.7717 4.51117 7.08597 4.63004C7.3838 4.7445 7.75624 4.94747 8.10908 4.93672C8.3481 4.92977 8.58585 4.8052 8.82677 4.71731C9.53245 4.46248 10.2242 4.17034 11.136 4.30756C12.2319 4.47323 13.0096 4.96012 13.4902 5.71132C12.5632 6.30129 11.8303 7.19034 11.9555 8.70856C12.0668 10.0877 12.8686 10.8945 13.8702 11.37Z" fill="#19191C"/>
</g>
</g>
<defs>
<clipPath id="clip0_3809_68117">
<rect width="16" height="16" fill="white"/>
</clipPath>
<clipPath id="clip1_3809_68117">
<rect width="14.4" height="14.4" fill="white" transform="translate(0.800003 0.799805)"/>
</clipPath>
</defs>
</svg>

<svg xmlns="http://www.w3.org/2000/svg" width="16" height="16" fill="none"><g clip-path="url(#a)"><g fill="#19191C" clip-path="url(#b)"><path d="M10.771.8h.103c.082 1.015-.306 1.774-.777 2.324-.462.545-1.095 1.075-2.119.994-.068-1 .32-1.703.79-2.251C9.206 1.356 10.006.9 10.772.8ZM13.87 11.37v.029a8.378 8.378 0 0 1-1.199 2.31c-.457.63-1.017 1.476-2.017 1.476-.865 0-1.439-.555-2.325-.57-.937-.016-1.452.464-2.31.585h-.291c-.63-.091-1.137-.59-1.507-1.038a9.097 9.097 0 0 1-2.09-5.233v-.645c.066-1.57.828-2.845 1.842-3.464.535-.328 1.27-.609 2.09-.483.35.054.709.174 1.023.293.298.115.67.317 1.023.307.24-.007.477-.132.718-.22.705-.255 1.397-.547 2.309-.41 1.096.166 1.874.653 2.354 1.404-.927.59-1.66 1.48-1.534 2.998.11 1.379.913 2.186 1.914 2.661Z"/></g></g><defs><clipPath id="a"><path fill="#fff" d="M0 0h16v16H0z"/></clipPath><clipPath id="b"><path fill="#fff" d="M.8.8h14.4v14.4H.8z"/></clipPath></defs></svg>
